Dominus_Funeral/22/apps/user-info.svg

<svg xmlns="http://www.w3.org/2000/svg" version="1" viewBox="0 0 24 24"><path style="isolation:auto;mix-blend-mode:normal" d="M18.73.22a.45.45 0 0 0-.42.26c0 .02-.87 1.72-2.27 2.56a6.8 6.8 0 0 0-4.03-1.47 4.6 4.6 0 0 0-3.67 1.67C6.72 2.54 5.69.5 5.69.48a.45.45 0 0 0-.46-.25.45.45 0 0 0-.39.35c0 .04-.21 1-.06 2.13.18 1.57.91 2.72 2.1 3.34.24.11.48.18.72.21 0 .8.03 1.6-.22 2.37-.33 1.2 0 2.44.86 3.3.73.92 1.64 2.13 1.13 3.37-.73 1.4-2.18 2.22-3.5 2.97a6 6 0 0 0-1.08.62h-.01v.01l-.08.05c-.32.1-.6.35-.6.7V23c0 .43.35.79.8.79h14.25c.43 0 .75-.36.75-.79v-4.1c-1.75-.96-3.7-1.87-4.7-3.72-.31-1.47.71-2.75 1.62-3.77.88-1.14.54-2.64.21-3.9-.03-.45-.02-.94 0-1.42l.09-.03c1.19-.62 1.9-1.77 2.1-3.34a7.31 7.31 0 0 0-.05-2.13.45.45 0 0 0-.4-.35.45.45 0 0 0-.04-.01z" fill="#1a1a1a"/></svg>

<?xml version="1.0" encoding="UTF-8" standalone="no"?>
<svg
   xmlns:dc="http://purl.org/dc/elements/1.1/"
   xmlns:cc="http://creativecommons.org/ns#"
   xmlns:rdf="http://www.w3.org/1999/02/22-rdf-syntax-ns#"
   xmlns:svg="http://www.w3.org/2000/svg"
   xmlns="http://www.w3.org/2000/svg"
   xmlns:sodipodi="http://sodipodi.sourceforge.net/DTD/sodipodi-0.dtd"
   xmlns:inkscape="http://www.inkscape.org/namespaces/inkscape"
   version="1"
   viewBox="0 0 24 24"
   id="svg4"
   sodipodi:docname="user-info.svg"
   inkscape:version="0.92.4 (5da689c313, 2019-01-14)">
  <metadata
     id="metadata10">
    <rdf:RDF>
      <cc:Work
         rdf:about="">
        <dc:format>image/svg+xml</dc:format>
        <dc:type
           rdf:resource="http://purl.org/dc/dcmitype/StillImage" />
        <dc:title></dc:title>
      </cc:Work>
    </rdf:RDF>
  </metadata>
  <defs
     id="defs8" />
  <sodipodi:namedview
     pagecolor="#ffffff"
     bordercolor="#666666"
     borderopacity="1"
     objecttolerance="10"
     gridtolerance="10"
     guidetolerance="10"
     inkscape:pageopacity="0"
     inkscape:pageshadow="2"
     inkscape:window-width="1138"
     inkscape:window-height="480"
     id="namedview6"
     showgrid="false"
     inkscape:zoom="9.8333333"
     inkscape:cx="1.0677966"
     inkscape:cy="12"
     inkscape:window-x="0"
     inkscape:window-y="25"
     inkscape:window-maximized="0"
     inkscape:current-layer="svg4" />
  <path
     style="isolation:auto;mix-blend-mode:normal;fill:#1a1a1a"
     d="m 18.73,0.22 a 0.45,0.45 0 0 0 -0.42,0.26 c 0,0.02 -0.87,1.72 -2.27,2.56 A 6.8,6.8 0 0 0 12.01,1.57 4.6,4.6 0 0 0 8.34,3.24 C 6.72,2.54 5.69,0.5 5.69,0.48 A 0.45,0.45 0 0 0 5.23,0.23 0.45,0.45 0 0 0 4.84,0.58 c 0,0.04 -0.21,1 -0.06,2.13 0.18,1.57 0.91,2.72 2.1,3.34 0.24,0.11 0.48,0.18 0.72,0.21 0,0.8 0.03,1.6 -0.22,2.37 -0.33,1.2 0,2.44 0.86,3.3 0.73,0.92 1.64,2.13 1.13,3.37 -0.73,1.4 -2.18,2.22 -3.5,2.97 A 6,6 0 0 0 4.79,18.89 H 4.78 V 18.9 L 4.7,18.95 c -0.32,0.1 -0.6,0.35 -0.6,0.7 V 23 c 0,0.43 0.35,0.79 0.8,0.79 h 14.25 c 0.43,0 0.75,-0.36 0.75,-0.79 v -4.1 c -1.75,-0.96 -3.7,-1.87 -4.7,-3.72 -0.31,-1.47 0.71,-2.75 1.62,-3.77 0.88,-1.14 0.54,-2.64 0.21,-3.9 -0.03,-0.45 -0.02,-0.94 0,-1.42 l 0.09,-0.03 c 1.19,-0.62 1.9,-1.77 2.1,-3.34 A 7.31,7.31 0 0 0 19.17,0.59 0.45,0.45 0 0 0 18.77,0.24 0.45,0.45 0 0 0 18.73,0.23 Z"
     id="path2"
     inkscape:connector-curvature="0" />
</svg>
